resources/svg/regular/cable-car.svg

<svg xmlns="http://www.w3.org/2000/svg" fill="currentColor" stroke="none" viewBox="0 0 24 24"><path d="m2 9.76 9-2.45V10H7a2 2 0 0 0-2 2v8a2 2 0 0 0 2 2h10a2 2 0 0 0 2-2v-8a2 2 0 0 0-2-2h-4V6.76l9-2.45V2.24L2 7.69zM11 12v3H7v-3zm6 0v8H7v-3h10v-2h-4v-3z"/></svg>

<svg xmlns="http://www.w3.org/2000/svg" fill="currentColor" stroke="none" viewBox="0 0 24 24"><path d="M2,9.76l9-2.45V10H7a2,2,0,0,0-2,2v8a2,2,0,0,0,2,2H17a2,2,0,0,0,2-2V12a2,2,0,0,0-2-2H13V6.76l9-2.45V2.24L2,7.69ZM11,12v3H7V12Zm6,0v8H7V17H17V15H13V12Z"/></svg>
